app/assets/images/heroicons/solid/document-currency-yen.svg

<svg width="24" height="24" viewBox="0 0 24 24" fill="none" xmlns="http://www.w3.org/2000/svg">
<path fill-rule="evenodd" clip-rule="evenodd" d="M3.75 3.375C3.75 2.33947 4.58947 1.5 5.625 1.5H9C11.0711 1.5 12.75 3.17893 12.75 5.25V7.125C12.75 8.16053 13.5895 9 14.625 9H16.5C18.5711 9 20.25 10.6789 20.25 12.75V20.625C20.25 21.6605 19.4105 22.5 18.375 22.5H5.625C4.58947 22.5 3.75 21.6605 3.75 20.625V3.375ZM14.25 5.25C14.25 3.93695 13.768 2.73648 12.9712 1.8159C16.3701 2.70377 19.0462 5.37988 19.9341 8.77881C19.0135 7.98204 17.8131 7.5 16.5 7.5H14.625C14.4179 7.5 14.25 7.33211 14.25 7.125V5.25ZM10.35 10.8C10.1015 10.4687 9.63141 10.4015 9.30004 10.65C8.96867 10.8986 8.90152 11.3687 9.15004 11.7L11.0625 14.25H9.75004C9.33583 14.25 9.00004 14.5858 9.00004 15C9.00004 15.4143 9.33583 15.75 9.75004 15.75H11.25V16.5H9.75004C9.33583 16.5 9.00004 16.8358 9.00004 17.25C9.00004 17.6643 9.33583 18 9.75004 18H11.25V18.75C11.25 19.1643 11.5858 19.5 12 19.5C12.4143 19.5 12.75 19.1643 12.75 18.75V18H14.25C14.6643 18 15 17.6643 15 17.25C15 16.8358 14.6643 16.5 14.25 16.5H12.75V15.75H14.25C14.6643 15.75 15 15.4143 15 15C15 14.5858 14.6643 14.25 14.25 14.25H12.9375L14.85 11.7C15.0986 11.3687 15.0314 10.8986 14.7 10.65C14.3687 10.4015 13.8986 10.4687 13.65 10.8L12 13L10.35 10.8Z" fill="black"/>
</svg>

<svg xmlns="http://www.w3.org/2000/svg" viewBox="0 0 24 24" fill="currentColor" aria-hidden="true" data-slot="icon">
  <path fill-rule="evenodd" d="M3.75 3.375c0-1.036.84-1.875 1.875-1.875H9a3.75 3.75 0 0 1 3.75 3.75v1.875c0 1.036.84 1.875 1.875 1.875H16.5a3.75 3.75 0 0 1 3.75 3.75v7.875c0 1.035-.84 1.875-1.875 1.875H5.625a1.875 1.875 0 0 1-1.875-1.875V3.375Zm10.5 1.875a5.23 5.23 0 0 0-1.279-3.434 9.768 9.768 0 0 1 6.963 6.963A5.23 5.23 0 0 0 16.5 7.5h-1.875a.375.375 0 0 1-.375-.375V5.25Zm-3.9 5.55a.75.75 0 0 0-1.2.9l1.912 2.55H9.75a.75.75 0 0 0 0 1.5h1.5v.75h-1.5a.75.75 0 0 0 0 1.5h1.5v.75a.75.75 0 1 0 1.5 0V18h1.5a.75.75 0 1 0 0-1.5h-1.5v-.75h1.5a.75.75 0 1 0 0-1.5h-1.313l1.913-2.55a.75.75 0 1 0-1.2-.9L12 13l-1.65-2.2Z" clip-rule="evenodd"/>
</svg>
